src/components/header/images/bcLogoMin.svg

<svg width="351" height="101" viewBox="0 0 351 101" fill="none" xmlns="http://www.w3.org/2000/svg">
<path d="M0.00390625 99.5366L0.00390625 1.10986L42.3291 1.10986V13.7316L18.4062 13.7316V42.0438H37.224V54.5498H18.4062L18.4062 87.0885H42.5666V99.5366H0.00390625Z" fill="white"/>
<path d="M77.8873 100.869C70.467 100.869 64.7089 99.4793 60.4942 96.6423C56.2794 93.8053 53.3707 89.9261 51.7086 85.0627C50.0464 80.1414 49.2153 74.5253 49.2153 68.0986V32.9545C49.2153 26.2383 50.0464 20.3906 51.7086 15.4692C53.3707 10.5479 56.2794 6.72664 60.4942 4.06333C64.7089 1.40002 70.467 0.0683594 77.8873 0.0683594C84.8327 0.0683594 90.294 1.22632 94.2713 3.54224C98.1892 5.85816 101.039 9.15836 102.701 13.4428C104.363 17.7273 105.194 22.7065 105.194 28.3805V36.6599H87.504V28.1489C87.504 25.3698 87.3853 22.8802 87.0885 20.6222C86.7916 18.3641 86.0199 16.5693 84.714 15.2376C83.408 13.906 81.2116 13.2112 78.0654 13.2112C74.9192 13.2112 72.6041 13.906 71.1794 15.3534C69.7547 16.743 68.8049 18.6536 68.3893 21.0854C67.9738 23.4592 67.7957 26.1804 67.7957 29.1911V71.9777C67.7957 75.5674 68.0925 78.4623 68.6862 80.7782C69.2798 83.0942 70.3483 84.8311 71.8917 85.9891C73.4351 87.147 75.5128 87.726 78.1841 87.726C81.271 87.726 83.408 87.0312 84.714 85.5838C86.0199 84.1942 86.7916 82.2836 87.1478 79.9098C87.504 77.536 87.6227 74.9305 87.6227 72.0356V63.0614H105.313V70.9356C105.313 76.7833 104.541 81.9362 102.938 86.4522C101.335 90.9683 98.6047 94.4422 94.6275 97.0476C90.5315 99.5951 85.0108 100.869 77.8873 100.869Z" fill="white"/>
<path d="M142.236 100.868C135.112 100.868 129.414 99.5945 125.199 96.9891C120.984 94.3836 117.957 90.6782 116.116 85.8147C114.276 80.9513 113.386 75.2194 113.386 68.5611V31.7379C113.386 25.0796 114.276 19.4056 116.116 14.658C117.957 9.91033 120.984 6.32066 125.199 3.77314C129.414 1.28352 135.112 0.00976562 142.236 0.00976562C149.537 0.00976562 155.296 1.28352 159.51 3.77314C163.725 6.26276 166.752 9.91033 168.593 14.658C170.433 19.4056 171.383 25.0796 171.383 31.7379V68.6769C171.383 75.2194 170.433 80.9513 168.593 85.7568C166.752 90.5624 163.666 94.3257 159.51 96.9312C155.296 99.5366 149.537 100.868 142.236 100.868ZM142.236 87.6096C145.323 87.6096 147.578 86.9727 149.003 85.641C150.428 84.3673 151.437 82.5724 151.912 80.3144C152.387 78.0564 152.684 75.5668 152.684 72.9035V27.5693C152.684 24.7901 152.446 22.3584 151.912 20.1583C151.378 17.9582 150.428 16.2791 149.003 15.0054C147.578 13.7316 145.263 13.0947 142.236 13.0947C139.327 13.0947 137.131 13.7316 135.647 15.0054C134.163 16.2791 133.153 17.9582 132.678 20.1583C132.204 22.3584 131.907 24.7901 131.907 27.5693V72.9035C131.907 75.5668 132.144 78.0564 132.619 80.3144C133.094 82.5724 134.044 84.3673 135.528 85.641C137.012 86.9727 139.268 87.6096 142.236 87.6096Z" fill="white"/>
<path d="M182.008 99.5366V1.10986L200.47 1.10986V87.1464H224.868V99.5366H182.008Z" fill="white"/>
<path d="M226.352 99.5366L246.535 1.10986L266.243 1.10986L286.427 99.5366H269.39L265.412 76.8405H247.841L243.745 99.5366H226.352ZM249.622 65.3767H263.335L256.508 24.0954L249.622 65.3767Z" fill="white"/>
<path d="M292.719 99.5368V1.10986L316.879 1.10986C323.706 1.10986 329.464 1.92044 334.154 3.48369C338.843 5.04694 342.405 7.76816 344.839 11.5894C347.273 15.4107 348.519 20.5636 348.519 27.164C348.519 31.159 348.163 34.6908 347.391 37.8752C346.62 41.0596 345.373 43.7229 343.592 45.9809C341.811 48.1811 339.318 49.918 336.172 51.1339L350.241 99.5947H331.779L319.551 54.5499H311.062V99.5368H292.719ZM311.121 43.1439H316.879C320.441 43.1439 323.29 42.6229 325.427 41.6386C327.564 40.6543 329.049 39.0332 329.998 36.7751C330.889 34.575 331.364 31.6801 331.364 28.2062C331.364 23.2849 330.414 19.5794 328.574 17.0898C326.733 14.6001 323.172 13.3843 317.948 13.3843H311.24V43.1439H311.121Z" fill="white"/>
</svg>

<svg width="351" height="101" fill="none" xmlns="http://www.w3.org/2000/svg"><path d="M.004 99.537V1.11h42.325v12.622H18.406v28.312h18.818V54.55H18.406v32.538h24.16v12.449H.005zM77.887 100.869c-7.42 0-13.178-1.39-17.393-4.227-4.215-2.837-7.123-6.716-8.785-11.58-1.663-4.92-2.494-10.537-2.494-16.963V32.954c0-6.716.831-12.563 2.494-17.485 1.662-4.921 4.57-8.742 8.785-11.406C64.71 1.4 70.467.068 77.887.068c6.946 0 12.407 1.158 16.384 3.474 3.918 2.316 6.768 5.616 8.43 9.9 1.662 4.285 2.493 9.264 2.493 14.939v8.279h-17.69v-8.511c0-2.78-.119-5.269-.416-7.527-.296-2.258-1.068-4.053-2.374-5.384-1.306-1.332-3.502-2.027-6.649-2.027-3.146 0-5.46.695-6.886 2.142-1.424 1.39-2.374 3.3-2.79 5.732-.415 2.374-.593 5.095-.593 8.106v42.787c0 3.59.296 6.484.89 8.8.594 2.316 1.662 4.053 3.206 5.211 1.543 1.158 3.62 1.737 6.292 1.737 3.087 0 5.224-.695 6.53-2.142 1.306-1.39 2.078-3.3 2.434-5.674.356-2.374.475-4.98.475-7.874V63.06h17.69v7.875c0 5.847-.772 11-2.375 15.516s-4.333 7.99-8.31 10.596c-4.097 2.547-9.617 3.821-16.74 3.821zM142.236 100.868c-7.124 0-12.822-1.273-17.037-3.879-4.215-2.605-7.242-6.31-9.083-11.174-1.84-4.864-2.73-10.596-2.73-17.254V31.738c0-6.658.89-12.332 2.73-17.08 1.841-4.748 4.868-8.337 9.083-10.885 4.215-2.49 9.913-3.763 17.037-3.763 7.301 0 13.06 1.274 17.274 3.763 4.215 2.49 7.242 6.137 9.083 10.885 1.84 4.748 2.79 10.422 2.79 17.08v36.939c0 6.542-.95 12.274-2.79 17.08-1.841 4.805-4.927 8.569-9.083 11.174-4.214 2.606-9.973 3.937-17.274 3.937zm0-13.258c3.087 0 5.342-.637 6.767-1.969 1.425-1.274 2.434-3.069 2.909-5.327.475-2.258.772-4.747.772-7.41V27.568c0-2.779-.238-5.21-.772-7.41s-1.484-3.88-2.909-5.154c-1.425-1.273-3.74-1.91-6.767-1.91-2.909 0-5.105.637-6.589 1.91-1.484 1.274-2.494 2.953-2.969 5.153a34.828 34.828 0 00-.771 7.411v45.334c0 2.664.237 5.153.712 7.411s1.425 4.053 2.909 5.327c1.484 1.332 3.74 1.969 6.708 1.969zM182.008 99.537V1.11h18.462v86.036h24.398v12.39h-42.86zM226.352 99.537L246.535 1.11h19.708l20.184 98.427H269.39l-3.978-22.697h-17.571l-4.096 22.697h-17.393zm23.27-34.16h13.713l-6.827-41.282-6.886 41.282zM292.719 99.537V1.11h24.16c6.827 0 12.585.81 17.275 2.374 4.689 1.563 8.251 4.284 10.685 8.105 2.434 3.822 3.68 8.975 3.68 15.575 0 3.995-.356 7.527-1.128 10.711-.771 3.185-2.018 5.848-3.799 8.106-1.781 2.2-4.274 3.937-7.42 5.153l14.069 48.46h-18.462L319.551 54.55h-8.489v44.987h-18.343zm18.402-56.393h5.758c3.562 0 6.411-.521 8.548-1.505 2.137-.985 3.622-2.606 4.571-4.864.891-2.2 1.366-5.095 1.366-8.569 0-4.921-.95-8.627-2.79-11.116-1.841-2.49-5.402-3.706-10.626-3.706h-6.708v29.76h-.119z" fill="#fff"/></svg>
